optimized/solid/login.svg

<svg xmlns="http://www.w3.org/2000/svg" viewBox="0 0 20 20" fill="currentColor" aria-hidden="true">
  <path fill-rule="evenodd" d="M3 3C3.55229 3 4 3.44771 4 4L4 16C4 16.5523 3.55228 17 3 17C2.44771 17 2 16.5523 2 16L2 4C2 3.44771 2.44772 3 3 3ZM10.7071 6.29289C11.0976 6.68342 11.0976 7.31658 10.7071 7.70711L9.41421 9L17 9C17.5523 9 18 9.44771 18 10C18 10.5523 17.5523 11 17 11L9.41421 11L10.7071 12.2929C11.0976 12.6834 11.0976 13.3166 10.7071 13.7071C10.3166 14.0976 9.68342 14.0976 9.29289 13.7071L6.29289 10.7071C6.10536 10.5196 6 10.2652 6 10C6 9.73478 6.10536 9.48043 6.29289 9.29289L9.29289 6.29289C9.68342 5.90237 10.3166 5.90237 10.7071 6.29289Z" clip-rule="evenodd"/>
</svg>

<svg xmlns="http://www.w3.org/2000/svg" viewBox="0 0 20 20" fill="currentColor" aria-hidden="true">
  <path fill-rule="evenodd" d="M3 3a1 1 0 011 1v12a1 1 0 11-2 0V4a1 1 0 011-1zm7.707 3.293a1 1 0 010 1.414L9.414 9H17a1 1 0 110 2H9.414l1.293 1.293a1 1 0 01-1.414 1.414l-3-3a1 1 0 010-1.414l3-3a1 1 0 011.414 0z" clip-rule="evenodd"/>
</svg>
